X:1057
T:A Ploughman Sailor.
M:C
L:1/8
Q:1/4=120
Z:Jack Campin * www.campin.me.uk * 2009
K:G
A>G|B2 B>B B2(cB)|   BABc    d2(ef)|gdcB  cB`AG|   B2A2     z2
G>A|B2 B>B B2 c>B|   BABc    d2 ef |geeg  fd d2|  ^cAA2     z2
AG |FA df  fe`d^c|{e}d4      z2 dc |Bde=f ge`dc|   edcB     c2
de |ed`cB  cB`AG |   GFAF    D2 d2 |bagf  fe`fg|{e}d2d>c {c}B2
cd |e2 E2  A2(Bc)|   d2D2    G2 AB |cABc  BG`AB|   GFAF     D2D2|
    G>ABB  G>ABB |   BABc    d2 D2 |G>ABB G>ABB|   BABc     d2
ef |geeg   fd`dB |   eccA {e}d2 zB |cBAG  Fe`dc|   B2A>G    G2 |]
<end>
<start>
